src/svgs/mdo.svg

<?xml version="1.0" encoding="UTF-8" standalone="no"?>
<svg
   viewBox="0 0 32 32"
   version="1.1"
   id="svg959"
   xmlns="http://www.w3.org/2000/svg"
   xmlns:svg="http://www.w3.org/2000/svg">
  <defs
     id="defs963" />
  <path
     id="path955"
     d="M 9.4003906 9.0996094 L 6 16 C 6 16 9.4003906 22.800391 9.4003906 22.900391 L 22.900391 22.900391 C 24.600391 22.900391 26 21.500781 26 19.800781 L 26 12.099609 C 26 10.499609 24.700391 9.0996094 22.900391 9.0996094 L 9.4003906 9.0996094 z M 10.599609 10.699219 L 23 10.699219 C 23.9 10.699219 24.5 11.399219 24.5 12.199219 L 24.5 19.900391 C 24.5 20.800391 23.8 21.400391 23 21.400391 L 10.599609 21.400391 C 10.599609 21.400391 7.5 16.499219 7.5 16.199219 L 10.599609 10.699219 z M 12.5 12.699219 L 12.5 13.800781 L 11.099609 13.800781 L 11.099609 15.300781 L 12.5 15.300781 L 12.5 19.199219 L 14 19.199219 L 14 12.699219 L 12.5 12.699219 z M 18 12.699219 C 16.2 12.699219 14.699219 14.2 14.699219 16 C 14.699219 17.8 16.2 19.300781 18 19.300781 L 22.699219 19.300781 L 22.699219 17.800781 L 18 17.800781 L 18 17.699219 C 17 17.699219 16.199219 16.900391 16.199219 15.900391 C 16.199219 14.900391 17 14.099609 18 14.099609 C 18.7 14.099609 19.399219 14.499219 19.699219 15.199219 L 21.199219 15.199219 C 20.799219 13.699219 19.5 12.699219 18 12.699219 z " />
</svg>

<svg xmlns="http://www.w3.org/2000/svg" viewBox="0 0 32 32"><path d="M18 17.7c-1 0-1.8-.8-1.8-1.8s.8-1.8 1.8-1.8c.7 0 1.4.4 1.7 1.1h1.5c-.4-1.5-1.7-2.5-3.2-2.5-1.8 0-3.3 1.5-3.3 3.3s1.5 3.3 3.3 3.3h4.7v-1.5H18zm-5.5-5H14v6.5h-1.5v-6.5zm-1.4 1.1h1.5v1.5h-1.5v-1.5z"/><path d="M22.9 9.1H9.4L6 16s3.4 6.8 3.4 6.9h13.5c1.7 0 3.1-1.4 3.1-3.1v-7.7c0-1.6-1.3-3-3.1-3zm1.6 10.8c0 .9-.7 1.5-1.5 1.5H10.6s-3.1-4.9-3.1-5.2l3.1-5.5H23c.9 0 1.5.7 1.5 1.5v7.7z"/></svg>
